packages/core/src/svgs/tokens/mono/POLY.svg

<svg width="24" height="24" viewBox="0 0 24 24" fill="none" xmlns="http://www.w3.org/2000/svg">
<path d="M22 6.98867L21.957 6.31066L21.757 6.87466L20.6499 7.86065L19.3639 8.05315L18.9855 7.69615L20.1 6.12466L21.2499 5.77466L20.0145 5.80316L18.2145 7.12466L16.5715 7.00316L16.507 6.96067L14.143 5.77466L12.743 6.06067L8.36399 9.74619L6.2715 10.4246L5.393 11.4437H3.843L3.0855 12.7886L2 13.0966L3.01399 13.2537L3.9715 11.9611L5.4215 12.2537L5.407 13.6467L4.6785 15.6326L4.24999 17.4827L3.8 18.2252L4.94299 17.9751L4.8145 17.2036L5.78549 15.1751L7.66399 14.4181L8.37898 13.2036L9.60699 12.3036L12.0285 12.6681L14.4785 11.5752L14.05 13.4437H12.9785L12.664 14.8107L13.593 14.1746L15.1285 13.5032L16.5 11.5892V10.6676L17.0714 11.3606L18.943 12.5462L20.014 12.0392L19.9429 9.51764L19.65 8.53216L21.043 8.17466L22 6.98867Z" fill="white"/>
</svg>

<svg xmlns="http://www.w3.org/2000/svg" width="24" height="24" fill="none" viewBox="0 0 24 24">
    <path fill="#fff" d="m22 6.989-.043-.678-.2.564-1.107.986-1.286.192-.379-.357L20.1 6.125l1.15-.35-1.235.028-1.8 1.322-1.643-.122-.065-.042-2.364-1.186-1.4.286-4.379 3.685-2.093.679-.878 1.019h-1.55l-.757 1.345L2 13.097l1.014.157.958-1.293 1.45.293-.015 1.393-.729 1.986-.428 1.85-.45.742 1.143-.25-.128-.771.97-2.029 1.879-.757.715-1.214 1.228-.9 2.422.364 2.45-1.093-.429 1.869h-1.072l-.314 1.367.929-.636 1.536-.672L16.5 11.59v-.921l.571.693 1.872 1.185 1.071-.507-.071-2.521-.293-.986 1.393-.357z"/>
</svg>
